X: 22298
T: La Rochelle
R: polka
M: 2/4
K: Dmajor
|:a|af fa|af fa|bg ec|dd fa|
af fa|af fa|bg ec|d2 d:|
|:e|cc cc|dd df|gg gg|fe ff|
cc cc|de df|ge dc|d2 d:|

